!!!OTL: WIR KINDER WIR SCHMECKEN DER FREUDEN RECHT VIEL
!!!ARE: Europa, Mitteleuropa, Deutschland
!!!SCT: F0253
!!!YEM: Copyright 1995, estate of Helmut Schaffrath.
**kern
*ICvox
*Ivox
*M3/8
*k[f#c#g#]
*A:
{16a
=1
8a
8cc#
16r
16ee
=2
8g#
16g#
16a}
{16b
16cc#
=3
8dd
16dd
16cc#
16dd
16ee
=4
8cc#
8.r}
{16a
=5
8ee
8cc#
16r
16a
=6
8f#
8dd
16r}
{16b
=7
8g#
16g#
16a
16b
16cc#
=8
8a
8r}
{16cc#
16b
=9
8b
16ee
16dd#
16ee
16cc#
=10
8b
16ee
16dd#}
{16ee
16cc#
=11
16b
16cc#
16b
16g#
16a
16f#
=12
8e
8r}
{16b
16cc#
=13
8dd
16dd
16cc#
16dd
16cc#
=14
8b
16b
16a}
{16b
16a
=15
8g#
16g#
16a
16b
16cc#
=16
8a
8.r}
==
!!!AGN: Jugend - Lied, Spiel; Belehrung
!!!ONB: ESAC (Essen Associative Code) Database: FINK
!!!AMT: simple triple
!!!AIN: vox
!!!EED: Helmut Schaffrath
!!!EEV: 1.0
*-
